X: 31413
T: Paddy Ryan's Dream
R: reel
M: 4/4
K: Amixolydian
ed|:cA A/A/A cABG|EGD=C B,CDB,|=CA,B,G, A,B,CD|EA^GB Aced|
cA A/A/A cABG|EGD=C B,CDB,|=CA,B,G, A,B,CD|1 EA^GB Aced:|2 EA^GB Aef^g||
|:a^gae ceAf|gfgd BFGB|A^gae cBAc|B^GED CEA^g|
a^gae ceAf|gfgd BGBd|cBcd edcB|1 Aa^gb aef^g:|2 Aa^gb a2ed||
cA A/A/A cABG|EDD=C (3A,B,C DB,|=CA,A,G, ~A,2CD|~E2^GB Afed|
~c2ac cAAG|EDD=C (3A,B,C DB,|=CA,A,G, ~A,2CD|1 ED^GB A3B:|2 ED^GB A3^g||
|:ae e/e/e ceAc|B/B/Bge dBG^g|a^gae ceAc|B^GED CEA^g|
a^gae ceAc|~B2ge dBGB|A2 B/c/d edcd|1 eaa^g a4:|2 eaa^g gaed||

